X: 66
T: the Morning Dew
R: reel
Z: 2012 John Chambers <jc@trillian.mit.edu>
B: "100 Essential Irish Session Tunes" 1995 Dave Mallinson, ed.
M: 4/4
L: 1/8
K: Em
|: "Em"E3B BAFA | EDEB "D"ADFD |\
   "Em"E3B BAFA | BcdB "D"ADFA :|
|: "Em"B2eB fBeB | "Bm"BcdB "D"ADFA |\
[1 "Em"B2eB fBeB | "Bm"dcdB "D"ADFA :|\
[2 "Em"Bdef "C"gfge | "Bm"dcdB "D"ADFA |]
|: "Em"B2GB FBEG | B2GB "D"ADFA |\
[1 "Em"B2GB FBEc | "Bm"dcdB "D"ADFA :|\
[2 "Em"BAGF "C"EFGA | "Bm"BcdB "D"ADFA |]

%%sep 2 1 500
%%sep 1 1 500

